packages/gestalt-icons-android/vr-theme/ic_vr_text-line-height_gestalt.svg

<svg width="24" height="24" viewBox="0 0 24 24" fill="none" xmlns="http://www.w3.org/2000/svg">
<path d="M2 4H22V2H2V4Z" fill="black"/>
<path d="M2 22H22V20H2V22Z" fill="black"/>
<path d="M13 8.41422L14.2929 9.70711L15.7071 8.29289L12 4.58579L8.29288 8.29289L9.70709 9.70711L11 8.41421L11 15.5858L9.7071 14.2929L8.29288 15.7071L12 19.4142L15.7071 15.7071L14.2929 14.2929L13 15.5858L13 8.41422Z" fill="black"/>
</svg>

<svg xmlns="http://www.w3.org/2000/svg" width="24" height="24"><path d="M2 4h20V2H2zm0 18h20v-2H2zM13 8.41l1.3 1.3 1.4-1.42L12 4.6 8.3 8.3l1.4 1.42L11 8.4v7.18l-1.3-1.3-1.4 1.42 3.7 3.7 3.7-3.7-1.4-1.42-1.3 1.3z"/></svg>
